!!!OTL: Maggie Mac
!!!ONM: 131.
**kern
*clefG2
*k[b-]
*F:
*M6/8
*MM84
{8c
=1
4f
8e
4f
8g
=2
8a
4cc
4r
8g
=3
4g
8g
4f
8e
=4
4f
8r
4r}
{8c
=5
4f
8a
4cc
8cc
=6
4.cc
4a
16cc
16cc
=7
4dd
8cc
4cc
8a
=8
4g
8r
4r}
{16a
16a
=9
4.cc
4cc
8a
=10
4.cc
4cc
8c
=11
[4c
8c]
4f
8g
=12
4.a
4r}
{8c
=13
4c
8c
4f
8g
=14
8a
4cc
4r
16cc
16a
=15
8g
4g
4f
8d
=16
4.c
=||
8r}
{8c
8c
=17
4.c
4f
8g
=18
[4.a
4a]
8g
=19
4.g
4f
8e
=20
[4.f
8f]
4r}
=21
{4.f
4a
8cc
=22
4cc
8cc
4a
8cc
=23
4dd
8cc
4cc
8a
=24
[4.g
8g]
8r}
{8cc
=25
4.cc
4cc
8a
=26
[4.cc
8cc]
8r
8c
=27
4.c
4f
8g
=28
[4.a
4a]
8r}
=29
{4.c
4f
8g
=30
8a
4cc
4a
8g
=31
8g
4g
4f
8e
=32
[4.f
4f]}
==
*-
!!!CNT: Folksongs of Maritime Canada
!!!MRD: 1928///-1932///
!!!OCL: Helen Creighton
!!!YOR: Songs and Ballads from Nova Scotia
!!!PPR: J.M. Dent & Sons, Limited
!!!PPP: Toronto, Canada
!!!PDT: 1932///
!!!reprint: Dover Publications, 1992: ISBN 0-486-21703-5
!!!ENC1: Craig Stuart Sapp (music and bibliographic data)                       
!!!ENC2: Marcus Pearce (phrase markings and key designations)                   
!!!ENC3: Darrell Conklin (phrase markings and key designations)   
!!!END: 2002/04/10/
!!!EEV: 2004/06/05
!!!MPN: Mr. Ben Henneberry
!!!PPG: 282
!!!EFL: 133/152
!!!ARE: Canada; Nova Scotia
!!!verses: 5
!!!VTS: 3704965724
